static/assets/svg/human/humanClothes/female_shirt7_stickers/female_shirt7_sticker21.svg

<svg class="shirtOverlay" width="86" height="380" viewBox="202.715 584.407 86.593 380.048" preserveAspectRatio="xMidYMax" xmlns="http://www.w3.org/2000/svg" xmlns:xlink="http://www.w3.org/1999/xlink"><defs><pattern id="a" width="20" height="20" patternUnits="userSpaceOnUse" viewBox="0 0 100 100"><path d="M28.479 54.693c0 4.778-5.133 9.196-3.236 14.886 5.061 15.185 21.809 14.47 35.437 13.107 6.404-.64 17.795-2.34 21.844-8.414 3.113-4.669-.005-6.457-2.912-10.194-7.12-9.154-8.509-14.564-20.713-14.564-2.42 0-13.304 5.022-15.533 5.341-4.383.626-2.97-3.128-7.282-2.266-2.054.411-5.735 2.265-7.12 2.265M56.149 42.557c0-.676 2.501 1.116 2.751 1.294 1.411 1.008 4.073 2.384 5.987 1.618 4.912-1.965 9.88-6.027 11.165-11.165 1.121-4.483-.618-9.908-1.457-14.239-.526-2.723-.1-1.099-.647-3.56-1.237-5.569-.611-5.088-5.825-4.045-.849.169-2.137.178-2.751.485-1.966.983-5.102 1.057-6.796 2.751-.421.421-.428 3.837-.647 4.369-3.35 8.135-1.295 14.059-1.295 21.359M37.864 44.013c0 .461 2.112.976 2.589 1.294 1.673 1.116 8.147-1.836 9.385-3.074.521-.521-.254-2.636-.323-3.398-.386-4.244-.162-8.701-.162-12.945 0-1.659.231-9.732-1.618-10.841-5.259-3.156-4.036-1.926-10.033.323-1.541.578-2.923.331-4.369 1.295-.97.647-1.097 2.554-1.78 3.236-.445.446.96 3.364 1.133 3.883 1.018 3.054 1.78 7.214 1.78 10.356M30.744 49.515c-1.077-1.077 1.264-4.108.324-5.987-2.571-5.142-4.645-10.336-6.634-16.02-.141-.4-2.582-7.612-4.693-5.502-2.251 2.251-5.763 2.627-7.443 5.988-1.693 3.385.449 7.598 2.103 10.356 3.289 5.481 6.464 11.812 12.783 11.812M83.01 42.88c0-1.671-3.042-.066-3.56.971-1.676 3.352-1.899 15.196 4.854 12.945 5.539-1.846 5.373-6.783 5.016-12.136-.07-1.06.32-5.827-.97-6.472-2.485-1.243-3.522-.486-5.664-.486" stroke="#fff"/></pattern><pattern id="b" patternTransform="translate(236.633 715.215)" xlink:href="#a"/></defs><path class="clothes" fill="url(#b)" d="M234.262 657.86l13.746 40.551 10.31-39.864 22.681 21.306.687 6.186-6.873 34.365 2.749 35.053 7.56 8.248v-1.375h-16.495l-6.873-30.929.687-13.059v.688l-4.811 14.433 2.749 6.186 13.059 27.492 3.437 13.059 1.374 6.186-49.486 6.185h-15.808l4.124-26.805 16.496-28.179 2.061-10.997-3.436-13.059-4.811-6.185 4.124 16.495.687 6.873-7.56 35.74-4.812-1.375-11.684 2.749h.688l9.622-19.244v-.687l.687-17.87-9.622-40.551 6.186-10.238z"/></svg>

<svg class="shirtOverlay" width="86" height="380" viewBox="202.715 584.407 86.5933 380.048" preserveAspectRatio="xMidYMax" xmlns="http://www.w3.org/2000/svg" xmlns:xlink="http://www.w3.org/1999/xlink">
  <defs id="svgEditorDefs">
    <path id="svgEditorClosePathDefs" fill="black" style="stroke-width: 0px; stroke: none;" class="clothes"/>
    <pattern id="pattern-0" x="0" y="0" width="20" height="20" patternUnits="userSpaceOnUse" viewBox="0 0 100 100">
      <path d="M 28.479 54.693 C 28.479 59.471 23.346 63.889 25.243 69.579 C 30.304 84.764 47.052 84.049 60.68 82.686 C 67.084 82.046 78.475 80.346 82.524 74.272 C 85.637 69.603 82.519 67.815 79.612 64.078 C 72.492 54.924 71.103 49.514 58.899 49.514 C 56.479 49.514 45.595 54.536 43.366 54.855 C 38.983 55.481 40.396 51.727 36.084 52.589 C 34.03 53 30.349 54.854 28.964 54.854" style="stroke: rgb(255, 255, 255);"/>
      <path d="M 56.149 42.557 C 56.149 41.881 58.65 43.673 58.9 43.851 C 60.311 44.859 62.973 46.235 64.887 45.469 C 69.799 43.504 74.767 39.442 76.052 34.304 C 77.173 29.821 75.434 24.396 74.595 20.065 C 74.069 17.342 74.495 18.966 73.948 16.505 C 72.711 10.936 73.337 11.417 68.123 12.46 C 67.274 12.629 65.986 12.638 65.372 12.945 C 63.406 13.928 60.27 14.002 58.576 15.696 C 58.155 16.117 58.148 19.533 57.929 20.065 C 54.579 28.2 56.634 34.124 56.634 41.424" style="stroke: rgb(255, 255, 255);"/>
      <path d="M 37.864 44.013 C 37.864 44.474 39.976 44.989 40.453 45.307 C 42.126 46.423 48.6 43.471 49.838 42.233 C 50.359 41.712 49.584 39.597 49.515 38.835 C 49.129 34.591 49.353 30.134 49.353 25.89 C 49.353 24.231 49.584 16.158 47.735 15.049 C 42.476 11.893 43.699 13.123 37.702 15.372 C 36.161 15.95 34.779 15.703 33.333 16.667 C 32.363 17.314 32.236 19.221 31.553 19.903 C 31.108 20.349 32.513 23.267 32.686 23.786 C 33.704 26.84 34.466 31 34.466 34.142" style="stroke: rgb(255, 255, 255);"/>
      <path d="M 30.744 49.515 C 29.667 48.438 32.008 45.407 31.068 43.528 C 28.497 38.386 26.423 33.192 24.434 27.508 C 24.293 27.108 21.852 19.896 19.741 22.006 C 17.49 24.257 13.978 24.633 12.298 27.994 C 10.605 31.379 12.747 35.592 14.401 38.35 C 17.69 43.831 20.865 50.162 27.184 50.162" style="stroke: rgb(255, 255, 255);"/>
      <path d="M 83.01 42.88 C 83.01 41.209 79.968 42.814 79.45 43.851 C 77.774 47.203 77.551 59.047 84.304 56.796 C 89.843 54.95 89.677 50.013 89.32 44.66 C 89.25 43.6 89.64 38.833 88.35 38.188 C 85.865 36.945 84.828 37.702 82.686 37.702" style="stroke: rgb(255, 255, 255);"/>
    </pattern>
    <pattern id="pattern-0-0" patternTransform="matrix(1, 0, 0, 1, 236.632996, 715.215454)" xlink:href="#pattern-0"/>
  </defs>
  <polygon id="e1_polygon" style="stroke-width: 0px; stroke: none; fill: url(#pattern-0-0);" points="234.262 657.86 248.008 698.411 258.318 658.547 280.999 679.853 281.686 686.039 274.813 720.404 277.562 755.457 285.122 763.705 285.122 762.33 268.627 762.33 261.754 731.401 262.441 718.342 262.441 719.03 257.63 733.463 260.379 739.649 273.438 767.141 276.875 780.2 278.249 786.386 228.763 792.571 212.955 792.571 217.079 765.766 233.575 737.587 235.636 726.59 232.2 713.531 227.389 707.346 231.513 723.841 232.2 730.714 224.64 766.454 219.828 765.079 208.144 767.828 208.832 767.828 218.454 748.584 218.454 747.897 219.141 730.027 209.519 689.476 215.705 679.238" class="clothes"/>
</svg>
